bundles/org.openhab.ui.habpanel/web/assets/icons/freepik-housethings/livingroom-lamp.svg

<svg xmlns="http://www.w3.org/2000/svg" width="430.312" height="430.312" style="enable-background:new 0 0 430.312 430.312" xml:space="preserve"><path d="M14.344 430.312h401.625V248.625H14.344v181.687zm375.328-153c3.959 0 7.172 29.166 7.172 65.14 0 35.975-3.213 65.14-7.172 65.14s-7.172-29.165-7.172-65.14c0-35.973 3.213-65.14 7.172-65.14zm-49.18 0c3.959 0 7.172 29.166 7.172 65.14 0 35.975-3.213 65.14-7.172 65.14s-7.172-29.165-7.172-65.14c0-35.973 3.213-65.14 7.172-65.14zm-49.18 0c3.958 0 7.172 29.166 7.172 65.14 0 35.975-3.214 65.14-7.172 65.14-3.959 0-7.172-29.165-7.172-65.14.001-35.973 3.214-65.14 7.172-65.14zm-51.427 3.309c.67-1.989 1.367-3.107 2.104-3.241.058-.01.096-.067.144-.067 3.959 0 7.172 29.166 7.172 65.14 0 35.975-3.213 65.14-7.172 65.14s-7.172-29.165-7.172-65.14c-.001-28.842 2.064-53.264 4.924-61.832zm-51.657 12.919c.479-3.835 1.014-7.066 1.597-9.639.956-4.179 2.008-6.589 3.137-6.589 1.1 0 2.142 2.314 3.069 6.34.583 2.524 1.128 5.728 1.616 9.534 1.521 11.943 2.486 29.567 2.486 49.275 0 35.974-3.213 65.14-7.172 65.14-3.959 0-7.172-29.166-7.172-65.14.001-19.525.947-36.987 2.439-48.921zm-44.446-16.228c3.959 0 7.172 29.166 7.172 65.14 0 35.975-3.213 65.14-7.172 65.14s-7.172-29.165-7.172-65.14c0-35.973 3.213-65.14 7.172-65.14zm-49.18 0c3.959 0 7.172 29.166 7.172 65.14 0 35.975-3.213 65.14-7.172 65.14-3.958 0-7.172-29.165-7.172-65.14 0-35.973 3.213-65.14 7.172-65.14zm-49.18 0c3.959 0 7.172 29.166 7.172 65.14 0 35.975-3.213 65.14-7.172 65.14s-7.172-29.165-7.172-65.14c0-35.973 3.213-65.14 7.172-65.14zM272.531 14.344c0-8.243-4.284-14.344-9.562-14.344h-114.75c-5.278 0-9.562 6.101-9.562 14.344s4.284 14.344 9.562 14.344h47.812v93.091c-18.245 14.717-36.261 31.968-36.261 58.389 0 25.972 17.834 39.407 36.261 50.136v8.76h32.981c-4.227-3.213-8.96-6.139-13.856-8.932V118.805c17.327-13.866 33.469-28.85 33.469-51.131 0-18.37-7.851-30.791-16.744-38.986h31.088c5.278 0 9.562-6.102 9.562-14.344zm-76.5 204.771c-14.554-9.084-26.698-20.11-26.698-38.948 0-19.708 11.8-33.296 26.698-45.967v84.915zm43.031-151.441c0 15.711-10.566 27.473-23.906 38.747V28.688h.688c10.09 5.775 23.218 17.413 23.218 38.986z"/></svg>

<?xml version="1.0" encoding="iso-8859-1"?>
<!-- Generator: Adobe Illustrator 16.0.0, SVG Export Plug-In . SVG Version: 6.00 Build 0)  -->
<!DOCTYPE svg PUBLIC "-//W3C//DTD SVG 1.1//EN" "http://www.w3.org/Graphics/SVG/1.1/DTD/svg11.dtd">
<svg version="1.1" id="Capa_1" xmlns="http://www.w3.org/2000/svg" xmlns:xlink="http://www.w3.org/1999/xlink" x="0px" y="0px"
	 width="430.312px" height="430.312px" viewBox="0 0 430.312 430.312" style="enable-background:new 0 0 430.312 430.312;"
	 xml:space="preserve">
<g>
	<g>
		<path d="M14.344,430.312h401.625V248.625H238.747H225.79h-10.634h-19.125H14.344V430.312z M389.672,277.312
			c3.959,0,7.172,29.166,7.172,65.14c0,35.975-3.213,65.14-7.172,65.14s-7.172-29.165-7.172-65.14
			C382.5,306.479,385.713,277.312,389.672,277.312z M340.492,277.312c3.959,0,7.172,29.166,7.172,65.14
			c0,35.975-3.213,65.14-7.172,65.14s-7.172-29.165-7.172-65.14C333.32,306.479,336.533,277.312,340.492,277.312z M291.312,277.312
			c3.958,0,7.172,29.166,7.172,65.14c0,35.975-3.214,65.14-7.172,65.14c-3.959,0-7.172-29.165-7.172-65.14
			C284.141,306.479,287.354,277.312,291.312,277.312z M239.885,280.621c0.67-1.989,1.367-3.107,2.104-3.241
			c0.058-0.01,0.096-0.067,0.144-0.067c3.959,0,7.172,29.166,7.172,65.14c0,35.975-3.213,65.14-7.172,65.14
			s-7.172-29.165-7.172-65.14C234.96,313.611,237.025,289.189,239.885,280.621z M188.228,293.54
			c0.479-3.835,1.014-7.066,1.597-9.639c0.956-4.179,2.008-6.589,3.137-6.589c1.1,0,2.142,2.314,3.069,6.34
			c0.583,2.524,1.128,5.728,1.616,9.534c1.521,11.943,2.486,29.567,2.486,49.275c0,35.974-3.213,65.14-7.172,65.14
			c-3.959,0-7.172-29.166-7.172-65.14C185.79,322.936,186.736,305.474,188.228,293.54z M143.782,277.312
			c3.959,0,7.172,29.166,7.172,65.14c0,35.975-3.213,65.14-7.172,65.14s-7.172-29.165-7.172-65.14
			C136.61,306.479,139.823,277.312,143.782,277.312z M94.602,277.312c3.959,0,7.172,29.166,7.172,65.14
			c0,35.975-3.213,65.14-7.172,65.14c-3.958,0-7.172-29.165-7.172-65.14C87.43,306.479,90.643,277.312,94.602,277.312z
			 M45.422,277.312c3.959,0,7.172,29.166,7.172,65.14c0,35.975-3.213,65.14-7.172,65.14s-7.172-29.165-7.172-65.14
			C38.25,306.479,41.463,277.312,45.422,277.312z"/>
		<path d="M272.531,14.344c0-8.243-4.284-14.344-9.562-14.344h-114.75c-5.278,0-9.562,6.101-9.562,14.344s4.284,14.344,9.562,14.344
			h47.812v93.091c-18.245,14.717-36.261,31.968-36.261,58.389c0,25.972,17.834,39.407,36.261,50.136v8.76h15.472h3.653h13.856
			c-4.227-3.213-8.96-6.139-13.856-8.932V118.805c17.327-13.866,33.469-28.85,33.469-51.131c0-18.37-7.851-30.791-16.744-38.986
			h31.088C268.247,28.688,272.531,22.586,272.531,14.344z M196.031,219.115c-14.554-9.084-26.698-20.11-26.698-38.948
			c0-19.708,11.8-33.296,26.698-45.967V219.115z M239.062,67.674c0,15.711-10.566,27.473-23.906,38.747V28.688h0.688
			C225.934,34.463,239.062,46.101,239.062,67.674z"/>
	</g>
</g>
<g>
</g>
<g>
</g>
<g>
</g>
<g>
</g>
<g>
</g>
<g>
</g>
<g>
</g>
<g>
</g>
<g>
</g>
<g>
</g>
<g>
</g>
<g>
</g>
<g>
</g>
<g>
</g>
<g>
</g>
</svg>
